X: 35458
T: Rowing From Isla To Uist
R: jig
M: 6/8
K: Aminor
E|A2A c2d|B2A B2d|A2A e2e|f>ed e2B|
c2c d2c|B2A B2d|f>ed e2B|A2A GFE|
A2A c2d|B2A B2d|A2A e2e|f>ed e2B|
c2c d2c|B2a B2d|f>ed e2B|A2B c2G|
E2E E2D|E2E c2d|B2A G2E|D2C DEF|
E2E E2D|E2E c2d|B2A GAB|A2B c2G|(A3A2):|

